X: 1247
T: Kerem Eyle Mestâne Kıl
C: Medenî Aziz Efendi
O: Turkey
F: http://compmusic.upf.edu/node/140
N: huzzam--sarki--aksaksemaievferi--kerem_eyle--medeni_aziz_efendi
N: makam= huzzam
N: form= sarki
N: usul= aksaksemaievferi = 10/8
M: 10/8
L: 1/16
K: C _1/4B _3/4e ^3/4f 
Q: 1/4=144
%%MIDI tuningsystem comma53
c4 d2d4dc Bcd4z2  | e4 e2e4ed cde4z2  | \
w:  ARANAĞME  |   | 
d4 e2f4g4f2 e4  | 
w:   | 
d4 B2c4d2 c2B4z2  | c4 d2d4dc Bcd4z2  | \
w:   |  ARANAĞME  | 
e4 e2e4ed cde4z2  | 
w:   | 
d4 e2f4g4f2 e4  | d4 B2c4d2 c2B4z2  | \
w:   |   | 
d3c Bcd2 efd3cBc d4  | 
w:  Ah  *  ke *  rem  *  *  ey *  le  *  mes  | 
e4 {f}edag2ffg fe{f}ed d4  | fedc Bcd2 efd3cBc d4  | 
w:  tâ *  ne  *  kıl  *  *  bir  *  *  *  *  ni *  gâh    |  Ca *  nım  *  ke *  rem  *  *  ey *  le  *  mes  | 
e4 {f}edag2ffg fe{f}ed d4  | f4 f2f4gf edef g4  | 
w:  tâ *  ne  *  kıl  *  *  bir  *  *  *  *  ni *  gâh    |  Ah  şa rab  iç  *  *  *  sü *  zül  | 
g2fe def2 efg2 fe{f}ed d4  | d2cB {c}BAA2 {B}AGB3/2A/ B2c2 d4  | 
w:  sün  *  *  o  *  çeşm_ *  *  i  *  *  *  si *  yah    |  Ca nım  *  *  şa *  rab  *  *  *  iç  *  *  sü zül  | 
e3/2d/c2 def2 edd2 {e}dccB B4  | b4 b2b4b4d'c' c'2{d'}c'b  | 
w:  sün  *  *  o  çeşm_ *  *  *  i  *  *  *  si *  yah    |  Ah  bu  bezm_ i  sa *  fâ  | 
b3^a a2a3gg4{a}gf f4  | g2fe def4f2 edg2 g4  | \
w:  dır  *  gel_ ey  *  rûy_ *  i  *  mâh    |  Ca nım  *  bu  *  bezm_ i  *  *  sa fâ  | 
g2fe def2 efg2 fe{f}ed d4  | 
w:  dır  *  *  gel_ *  ey  *  *  rûy_ *  *  *  i  *  mâh    | 
f4 f2f4gf edef g4  | g2fe def2 efg2 fe{f}ed d4  | 
w:  Ah  şa rab  iç  *  *  *  sü *  zül  |  sün  *  *  o  *  çeşm_ *  *  i  *  *  *  si *  yah    | 
d2cB {c}BAA2 {B}AGB3/2A/ B2c2 d4  | \
w:  Ca nım  *  *  şa *  rab  *  *  *  iç  *  *  sü zül  | 
e3/2d/c2 def2 edd2 {e}dccB B4  | 
w:  sün  *  *  o  çeşm_ *  *  *  i  *  *  *  si *  yah    | 
|


